icons/1_Primary/Guideline.svg

<svg width="1024" height="1024" fill="none" xmlns="http://www.w3.org/2000/svg"><g clip-path="url(#a)"><path d="M512 1024c282.77 0 512-229.23 512-512S794.77 0 512 0 0 229.23 0 512s229.23 512 512 512Z" fill="#ABABFF"/><path d="M895 583.17H243.03v44.72H127.85v20.52h135.29v-44.77H895V583.17ZM201.96 469.19l.02.03h-.02v-.03c-6.21-10.31-16.25-16.19-30.99-16.19-27.62.17-43.97 22.15-43.97 52.59 0 30.44 16.35 52.42 43.97 52.42 5.08.28 10.14-.6 14.84-2.57 4.71-1.97 8.91-4.99 12.31-8.82v14.66c0 9.97-5.28 21.8-22 21.8-12.67 0-18.92-7.09-21.11-14.71l-22.43 10.84c5.62 14.4 19.05 26.49 45.11 26.49 38.65 0 48.57-26.06 48.57-48.88V454.48H202.6l-.63 14.72-.01-.01Zm253.83-7.24c-7.05-6.06-16.13-9.15-25.33-8.59-27.75 0-44.14 21.97-44.14 52.42 0 30.45 16.39 52.42 44.14 52.42 5.91.39 11.81-.82 17.11-3.5a33.907 33.907 0 0 0 13.11-11.74l.73 13.41h23.66v-149.2h-29.15l-.13 54.78Zm439.13 46.74v-3.09c0-31.47-17.75-52.42-47-52.42s-48.96 20.94-48.96 52.42 19.72 52.42 48.96 52.42c20.22 0 35.3-9.8 42.45-26.36l-21.11-10.19a21.17 21.17 0 0 1-7.87 10.9c-3.72 2.66-8.2 4-12.74 3.81-5.39.15-10.62-1.8-14.64-5.45-4.02-3.65-6.51-8.74-6.98-14.19h.2l67.71-7.83-.02-.02Zm-350.65-55.52c-29.28 0-48.99 20.94-48.99 52.42s19.72 52.42 48.99 52.42c20.18 0 35.27-9.8 42.24-26.36l-21.11-10.19a21.151 21.151 0 0 1-7.72 10.79c-3.65 2.66-8.04 4.04-12.52 3.92-5.43.22-10.75-1.69-14.84-5.34-4.09-3.66-6.62-8.78-7.09-14.3l67.58-7.91v-3.09c.43-31.4-17.32-52.32-46.54-52.32v-.04Zm-243 58.78c0 13.97-5.92 22.15-17.58 22.15-8.15 0-14.95-3.61-14.95-19.14v-60.49h-29.15v66.35c0 21.5 13.36 37.11 35.9 37.11 5.41 0 10.75-1.21 15.62-3.61 4.87-2.38 9.17-5.86 12.54-10.16l1.82 12.13h24.93V454.47h-29.15v57.5l.02-.02Zm329.03 13.73V407.17h-29.15v121.52c0 14.1 2.79 28.85 27.46 28.85 4.67.24 9.34-.54 13.69-2.33v-22.75s-12 3.09-12-6.79v.01Zm52.16-71.2h-29.15v101.91h29.15V454.48Zm-307.57 0h-29.15v101.91h29.15V454.48Zm377.9-1.64c-5.39 0-10.73 1.21-15.61 3.59a35.977 35.977 0 0 0-12.52 10.14l-1.82-12.09h-24.96v101.91h29.15v-57.53c0-15.9 5.92-22.15 17.62-22.15 8.15 0 14.92 3.61 14.92 19.14v60.55h29.15v-66.48c0-21.54-13.36-37.07-35.9-37.07h-.02l-.01-.01Zm-575.78 81.27c-13.82 0-21.97-11.22-21.97-28.72s8.15-28.72 21.97-28.72c13.82 0 21.8 11.22 21.8 28.72s-7.98 28.72-21.8 28.72Zm259.8 0c-13.82 0-21.97-11.22-21.97-28.72s8.15-28.72 21.97-28.72c13.82 0 21.97 11.22 21.97 28.72s-8.15 28.72-21.97 28.72Zm85.71-35.7c0-14.79 8.44-24.46 21.58-24.46a20.65 20.65 0 0 1 14.38 5.52c3.92 3.63 6.34 8.67 6.75 14.04l-42.71 4.91v-.02.01Zm303.75 0c0-14.79 8.65-24.46 21.54-24.46a20.65 20.65 0 0 1 14.38 5.52c3.92 3.63 6.34 8.67 6.75 14.04l-42.65 4.91-.02-.02v.01Zm-465.96-93.69h-.02.01c-3.22 0-6.36.97-9.03 2.79a16.515 16.515 0 0 0-5.99 7.42 16.99 16.99 0 0 0-.93 9.56c.63 3.22 2.18 6.16 4.45 8.48 2.27 2.31 5.17 3.89 8.33 4.54 3.16.63 6.42.32 9.39-.95 2.98-1.25 5.51-3.37 7.29-6.1 1.79-2.72 2.73-5.92 2.73-9.19a16.703 16.703 0 0 0-4.76-11.7c-3.05-3.1-7.17-4.85-11.48-4.85h.01Zm307.57 0h-.02.01c-3.22 0-6.36.97-9.03 2.79a16.515 16.515 0 0 0-5.99 7.42 16.99 16.99 0 0 0-.93 9.56c.63 3.22 2.18 6.16 4.45 8.48 2.27 2.31 5.17 3.89 8.33 4.54 3.16.63 6.42.32 9.39-.95 2.98-1.25 5.51-3.37 7.29-6.1 1.79-2.72 2.73-5.92 2.73-9.19a16.703 16.703 0 0 0-4.76-11.7c-3.05-3.1-7.17-4.85-11.48-4.85h.01Z" fill="#fff"/></g><defs><clipPath id="a"><path fill="#fff" d="M0 0h1024v1024H0z"/></clipPath></defs></svg>

<svg width="1024" height="1024" viewBox="0 0 1024 1024" fill="none" xmlns="http://www.w3.org/2000/svg">
<g clip-path="url(#clip0_2_2346)">
<path d="M512 1024C794.77 1024 1024 794.77 1024 512C1024 229.23 794.77 0 512 0C229.23 0 0 229.23 0 512C0 794.77 229.23 1024 512 1024Z" fill="#ABABFF"/>
<path d="M895 583.17H243.03V627.89H127.85V648.41H263.14V603.64H895V583.18V583.17ZM201.96 469.19L201.98 469.22H201.96V469.19C195.75 458.88 185.71 453 170.97 453C143.35 453.17 127 475.15 127 505.59C127 536.03 143.35 558.01 170.97 558.01C176.05 558.29 181.11 557.41 185.81 555.44C190.52 553.47 194.72 550.45 198.12 546.62V561.28C198.12 571.25 192.84 583.08 176.12 583.08C163.45 583.08 157.2 575.99 155.01 568.37L132.58 579.21C138.2 593.61 151.63 605.7 177.69 605.7C216.34 605.7 226.26 579.64 226.26 556.82V454.48H202.6L201.97 469.2L201.96 469.19ZM455.79 461.95C448.74 455.89 439.66 452.8 430.46 453.36C402.71 453.36 386.32 475.33 386.32 505.78C386.32 536.23 402.71 558.2 430.46 558.2C436.37 558.59 442.27 557.38 447.57 554.7C452.897 552.009 457.419 547.959 460.68 542.96L461.41 556.37H485.07V407.17H455.92L455.79 461.95ZM894.92 508.69V505.6C894.92 474.13 877.17 453.18 847.92 453.18C818.67 453.18 798.96 474.12 798.96 505.6C798.96 537.08 818.68 558.02 847.92 558.02C868.14 558.02 883.22 548.22 890.37 531.66L869.26 521.47C867.891 525.862 865.128 529.688 861.39 532.37C857.67 535.03 853.19 536.37 848.65 536.18C843.26 536.33 838.03 534.38 834.01 530.73C829.99 527.08 827.5 521.99 827.03 516.54H827.23L894.94 508.71L894.92 508.69ZM544.27 453.17C514.99 453.17 495.28 474.11 495.28 505.59C495.28 537.07 515 558.01 544.27 558.01C564.45 558.01 579.54 548.21 586.51 531.65L565.4 521.46C564.04 525.81 561.33 529.59 557.68 532.25C554.03 534.91 549.64 536.29 545.16 536.17C539.73 536.39 534.41 534.48 530.32 530.83C526.23 527.17 523.7 522.05 523.23 516.53L590.81 508.62V505.53C591.24 474.13 573.49 453.21 544.27 453.21V453.17ZM301.27 511.95C301.27 525.92 295.35 534.1 283.69 534.1C275.54 534.1 268.74 530.49 268.74 514.96V454.47H239.59V520.82C239.59 542.32 252.95 557.93 275.49 557.93C280.9 557.93 286.24 556.72 291.11 554.32C295.98 551.94 300.28 548.46 303.65 544.16L305.47 556.29H330.4V454.47H301.25V511.97L301.27 511.95ZM630.3 525.68V407.17H601.15V528.69C601.15 542.79 603.94 557.54 628.61 557.54C633.28 557.78 637.95 557 642.3 555.21V532.46C642.3 532.46 630.3 535.55 630.3 525.67V525.68ZM682.46 454.48H653.31V556.39H682.46V454.48ZM374.89 454.48H345.74V556.39H374.89V454.48ZM752.79 452.84C747.4 452.84 742.06 454.05 737.18 456.43C732.294 458.82 728.013 462.287 724.66 466.57L722.84 454.48H697.88V556.39H727.03V498.86C727.03 482.96 732.95 476.71 744.65 476.71C752.8 476.71 759.57 480.32 759.57 495.85V556.4H788.72V489.92C788.72 468.38 775.36 452.85 752.82 452.85H752.8L752.79 452.84ZM177.01 534.11C163.19 534.11 155.04 522.89 155.04 505.39C155.04 487.89 163.19 476.67 177.01 476.67C190.83 476.67 198.81 487.89 198.81 505.39C198.81 522.89 190.83 534.11 177.01 534.11ZM436.81 534.11C422.99 534.11 414.84 522.89 414.84 505.39C414.84 487.89 422.99 476.67 436.81 476.67C450.63 476.67 458.78 487.89 458.78 505.39C458.78 522.89 450.63 534.11 436.81 534.11ZM522.52 498.41C522.52 483.62 530.96 473.95 544.1 473.95C549.426 473.867 554.578 475.844 558.48 479.47C562.4 483.1 564.82 488.14 565.23 493.51L522.52 498.42V498.4V498.41ZM826.27 498.41C826.27 483.62 834.92 473.95 847.81 473.95C853.136 473.867 858.288 475.844 862.19 479.47C866.11 483.1 868.53 488.14 868.94 493.51L826.29 498.42L826.27 498.4V498.41ZM360.31 404.72H360.29H360.3C357.08 404.72 353.94 405.69 351.27 407.51C348.587 409.341 346.503 411.922 345.28 414.93C344.057 417.961 343.734 421.28 344.35 424.49C344.98 427.71 346.53 430.65 348.8 432.97C351.07 435.28 353.97 436.86 357.13 437.51C360.29 438.14 363.55 437.83 366.52 436.56C369.5 435.31 372.03 433.19 373.81 430.46C375.6 427.74 376.54 424.54 376.54 421.27C376.546 416.897 374.837 412.697 371.78 409.57C368.73 406.47 364.61 404.72 360.3 404.72H360.31ZM667.88 404.72H667.86H667.87C664.65 404.72 661.51 405.69 658.84 407.51C656.157 409.341 654.073 411.922 652.85 414.93C651.627 417.961 651.304 421.28 651.92 424.49C652.55 427.71 654.1 430.65 656.37 432.97C658.64 435.28 661.54 436.86 664.7 437.51C667.86 438.14 671.12 437.83 674.09 436.56C677.07 435.31 679.6 433.19 681.38 430.46C683.17 427.74 684.11 424.54 684.11 421.27C684.116 416.897 682.407 412.697 679.35 409.57C676.3 406.47 672.18 404.72 667.87 404.72H667.88Z" fill="white"/>
</g>
<defs>
<clipPath id="clip0_2_2346">
<rect width="1024" height="1024" fill="white"/>
</clipPath>
</defs>
</svg>
